docs/images/single-tenant/component-mobile-sdk-icon.svg

<?xml version="1.0" encoding="UTF-8" standalone="no"?>
<svg width="116px" height="124px" viewBox="0 0 116 124" version="1.1" xmlns="http://www.w3.org/2000/svg" xmlns:xlink="http://www.w3.org/1999/xlink">
    <!-- Generator: sketchtool 39.1 (31720) - http://www.bohemiancoding.com/sketch -->
    <title>C9C2DFCB-8A3E-43C1-9082-6BFAD05D999C</title>
    <desc>Created with sketchtool.</desc>
    <defs></defs>
    <g id="Onegini-Documentation" stroke="none" stroke-width="1" fill="none" fill-rule="evenodd">
        <g id="Onegini-Documentation---Landing-Page" transform="translate(-957.000000, -1438.000000)" fill="#00AEEF">
            <g id="Key-Components" transform="translate(110.000000, 1285.000000)">
                <g id="Mobile-SDK" transform="translate(749.000000, 85.000000)">
                    <g transform="translate(98.000000, 68.000000)" id="Layer_1">
                        <g>
                            <path d="M112.494854,104.242125 L72.6626571,64.4160658 C72.2951175,64.0490521 71.9024416,63.7080967 71.4874836,63.3956776 L78.5385247,55.9746728 C78.9042486,55.6122801 79.2500903,55.2303645 79.5745329,54.8306012 C88.0298205,58.0163836 97.528973,56.6368987 104.728434,51.1777041 C111.927894,45.7185096 115.818477,36.9448498 115.030755,27.9449191 C114.951154,27.0679734 114.37207,26.3159201 113.544505,26.0147325 C112.716939,25.713545 111.789839,25.9174322 111.165052,26.5380203 L98.4082346,39.2928723 L85.481326,36.0307223 L81.8166402,22.7038344 L94.5734579,9.94898235 C95.1941417,9.32429162 95.3980602,8.39733499 95.0968263,7.56989668 C94.7955923,6.74245838 94.0434231,6.16346407 93.1663423,6.08387566 C84.1559214,5.30715604 75.378864,9.21613463 69.9294669,16.4327254 C64.4800699,23.6493161 63.1236362,33.1600346 66.3383681,41.6119363 C65.9517979,41.9366053 65.5652276,42.2767347 65.1941202,42.6477849 L54.834038,52.6816019 L35.7529313,33.557054 C35.5161689,33.322834 35.2629645,33.105835 34.9952536,32.9077161 C35.211733,32.5212054 35.4436751,32.1037739 35.6446916,31.6863424 C39.665022,32.4593637 47.0407821,24.6209273 53.287757,18.3749149 L35.0725677,0.116150928 C26.9236672,8.26379583 20.9859484,13.7213265 21.7590889,17.7564979 C20.0526185,18.5701516 18.4867084,19.6504631 17.1202461,20.9568062 L14.4761057,23.5696183 C12.8494095,25.1638515 11.7671963,27.2305603 11.3835438,29.4755013 C11.1361389,29.753789 10.8887339,30.0629976 10.6258661,30.3722061 L9.66717197,31.5781194 L9.52800668,31.7636445 L8.66208936,32.9695578 C8.12089104,33.6961978 7.64154395,34.5156005 7.11580843,35.2422405 L6.60553572,36.092564 L6.52822168,36.2317078 L6.14165144,36.9583479 C5.67776716,37.8241318 5.19842008,38.736297 4.78092422,39.7257643 L4.78092422,39.8803685 C4.25509873,41.061361 3.80575065,42.2749303 3.43565981,43.5135688 L3.26556891,44.0701442 C3.12640363,44.5184966 2.98723834,44.9668489 2.84807306,45.5079639 L2.56974249,47.2549921 C2.34545035,48.2729029 2.20069412,49.3067166 2.13678383,50.3470775 L2.13678383,50.980955 C2.05553853,51.8964752 2.05553853,52.8173906 2.13678383,53.7329109 L2.13678383,54.6450761 L2.13678383,55.0934285 C2.13897179,55.5073594 2.16997232,55.9206361 2.22956069,56.3302626 L2.44604002,57.7526219 C2.44604002,58.0309096 2.53881687,58.2937368 2.56974249,58.5565641 C2.63988599,59.1464987 2.75359033,59.7304355 2.9099243,60.3035923 L3.80676724,63.5039006 C4.09204158,64.4902336 5.02702084,65.1438245 6.05148371,65.0730543 C7.07594657,65.0022842 7.91214274,64.22634 8.0590398,63.2101525 L8.53838689,59.9170816 C8.59939364,59.5619405 8.68201546,59.2108519 8.78579184,58.8657726 C8.86310588,58.5874849 8.95588274,58.2937368 9.01773398,58.0618304 L9.35791578,56.8404567 C9.41191007,56.6705547 9.47912079,56.5051384 9.5589323,56.345723 L9.75994882,55.8819102 L10.0846678,55.0934285 C10.2724674,54.5568052 10.510625,54.039151 10.795957,53.5473858 L11.1825273,52.8825874 C11.4646223,52.3415906 11.7904236,51.8245254 12.1566843,51.3365448 L12.1566843,51.2437822 L13.0844528,50.2079336 C13.2545437,49.9914876 13.4400974,49.8059625 13.6256512,49.604977 L14.043147,49.1411642 C14.5228919,48.591334 15.039513,48.0747925 15.5894279,47.5951215 L15.8832213,47.3322942 C16.2852544,46.961244 16.7491386,46.6056542 17.2439485,46.2346039 L17.8315353,45.7862516 L18.5582873,45.3069783 C18.9651382,45.0195644 19.3885169,44.7562841 19.8262377,44.5184966 L20.8158575,43.9464608 L21.7281632,43.4053458 C22.068345,43.2352812 22.393064,43.0961373 22.7023202,42.9724539 L23.2280557,42.7560079 L23.7228656,42.5704828 C23.9302676,42.4873203 24.1418823,42.4150728 24.3568408,42.3540368 L24.6197086,42.3540368 C24.908407,42.8250081 25.2508876,43.2608254 25.640254,43.6527127 L44.5048814,62.5144333 L4.30157714,101.1655 L4.30157714,101.1655 C-0.708373083,106.174678 -1.52790198,113.533842 3.48204824,118.527559 C8.49199846,123.521277 15.2647089,122.253522 20.2746592,117.306186 L20.2746592,117.306186 L55.8391206,79.9074134 C56.0401371,80.1547802 56.2566164,80.4021471 56.4885586,80.6340535 L96.3362182,120.398271 C99.2087501,123.352491 103.449643,124.531476 107.435063,123.483793 C111.420482,122.436109 114.533006,119.324065 115.580851,115.33926 C116.628696,111.354454 115.44953,107.114214 112.494854,104.242125 L112.494854,104.242125 Z M15.0791552,113.178252 C13.727213,114.534671 11.6907762,114.942428 9.92068114,114.211137 C8.15058609,113.479846 6.99599172,111.753756 6.99599172,109.8388 C6.99599172,107.923843 8.15058609,106.197754 9.92068114,105.466462 C11.6907762,104.735171 13.727213,105.142928 15.0791552,106.499347 C15.966755,107.384077 16.4656338,108.585669 16.4656338,109.8388 C16.4656338,111.09193 15.966755,112.293523 15.0791552,113.178252 L15.0791552,113.178252 Z" id="Shape"></path>
                        </g>
                    </g>
                </g>
            </g>
        </g>
    </g>
</svg>

<svg width="116" height="124" viewBox="0 0 116 124" xmlns="http://www.w3.org/2000/svg"><title>Onegini SDK</title><path d="M112.495 104.242L72.663 64.416a11.18 11.18 0 0 0-1.176-1.02l7.052-7.421a14.27 14.27 0 0 0 1.036-1.144 26.29 26.29 0 0 0 25.153-3.653 26.281 26.281 0 0 0 10.303-23.233 2.273 2.273 0 0 0-3.866-1.407L98.408 39.293 85.481 36.03l-3.664-13.327L94.573 9.949a2.272 2.272 0 0 0-1.407-3.865A26.288 26.288 0 0 0 69.93 16.433a26.28 26.28 0 0 0-3.59 25.179c-.387.325-.774.665-1.145 1.036l-10.36 10.034-19.081-19.125a6.989 6.989 0 0 0-.758-.65c.217-.386.449-.803.65-1.22 4.02.772 11.396-7.066 17.643-13.312L35.073.116c-8.15 8.148-14.087 13.605-13.314 17.64a17.798 17.798 0 0 0-4.639 3.2l-2.644 2.614a10.822 10.822 0 0 0-3.092 5.906c-.248.278-.495.587-.758.896l-.959 1.206-.139.186-.866 1.206c-.541.726-1.02 1.546-1.546 2.272l-.51.85-.078.14-.386.726c-.464.866-.944 1.778-1.361 2.768v.154a30.16 30.16 0 0 0-1.345 3.634l-.17.556c-.14.448-.279.897-.418 1.438l-.278 1.747a20.096 20.096 0 0 0-.433 3.092v.634a15.566 15.566 0 0 0 0 2.752v1.36c.002.414.033.828.093 1.237l.216 1.423c0 .278.093.54.124.804.07.59.184 1.173.34 1.747l.897 3.2a2.18 2.18 0 0 0 4.252-.294l.48-3.293c.06-.355.143-.706.247-1.051.077-.279.17-.572.232-.804l.34-1.222c.054-.17.121-.335.2-.494l.202-.464.325-.789a9.013 9.013 0 0 1 .711-1.546l.387-.664c.282-.541.607-1.058.974-1.546v-.093l.927-1.036c.17-.217.356-.402.542-.603l.417-.464c.48-.55.997-1.066 1.546-1.546l.294-.263c.402-.37.866-.726 1.36-1.097l.589-.449.726-.479c.407-.287.83-.55 1.268-.789l.99-.572.912-.54c.34-.17.665-.31.974-.434l.526-.216.495-.186c.207-.083.419-.155.634-.216h.263c.288.471.63.907 1.02 1.299l18.865 18.861-40.203 38.651c-5.01 5.01-5.83 12.369-.82 17.363 5.01 4.993 11.783 3.726 16.793-1.222l35.564-37.399c.201.248.418.495.65.727l39.847 39.764a11.428 11.428 0 0 0 19.245-5.059 11.424 11.424 0 0 0-3.086-11.097zm-97.416 8.936a4.732 4.732 0 1 1 0-6.679 4.715 4.715 0 0 1 0 6.68z" fill="#EB4D00" fill-rule="evenodd"/></svg>
